X: 12095
T: Eugene O'Donnell's
R: slip jig
M: 9/8
K: Dmajor
G|:FFF AFD dAF|BGE AFD GEC|FFF AFA dcA|
[1 B/c/df edc BAG:|2 B/c/df edc d2g||
|:fd/e/f def ecA|Bgf efg age|
[1 fd/e/f def ecA|B/c/dg edc d2g:|
[2 f/g/af gba gfe|dcB ABc d3||

